src/assets/images/podbackground.svg

<svg fill="none" height="374" viewBox="0 0 374 374" width="374" xmlns="http://www.w3.org/2000/svg"><g stroke="#fff" stroke-width="50"><path d="m349 187c0 89.47-72.53 162-162 162-89.4701 0-162-72.53-162-162 0-89.4701 72.5299-162 162-162 89.47 0 162 72.5299 162 162z" opacity=".15"/><path d="m267 186.5c0 44.02-35.482 79.5-79 79.5s-79-35.48-79-79.5 35.482-79.5 79-79.5 79 35.48 79 79.5z" opacity=".25"/></g></svg>

<svg width="374" height="374" viewBox="0 0 374 374" fill="none" xmlns="http://www.w3.org/2000/svg">
    <path opacity="0.15"
        d="M349 187C349 276.47 276.47 349 187 349C97.5299 349 25 276.47 25 187C25 97.5299 97.5299 25 187 25C276.47 25 349 97.5299 349 187Z"
        stroke="white" stroke-width="50" />
    <path opacity="0.25"
        d="M267 186.5C267 230.52 231.518 266 188 266C144.482 266 109 230.52 109 186.5C109 142.48 144.482 107 188 107C231.518 107 267 142.48 267 186.5Z"
        stroke="white" stroke-width="50" />
</svg>
